icon-themes/breeze_svg/cmd/sc_hangingindent.svg

<svg viewBox="0 0 16 16" xmlns="http://www.w3.org/2000/svg"><path d="m2 3v1h12v-1zm5 2v1h4v-1zm0 2v1h7v-1zm0 2v1h5.25v-1zm0 2v1h7v-1zm0 2v1h3v-1z" fill="#4d4d4d"/><path d="m2 5v5l3-2.5z" fill="#1d99f3"/></svg>

<svg xmlns="http://www.w3.org/2000/svg" viewBox="0 0 16 16">
 <path 
     style="fill:#4d4d4d" 
     d="M 2 3 L 2 4 L 14 4 L 14 3 L 2 3 z M 7 5 L 7 6 L 11 6 L 11 5 L 7 5 z M 7 7 L 7 8 L 14 8 L 14 7 L 7 7 z M 7 9 L 7 10 L 12.25 10 L 12.25 9 L 7 9 z M 7 11 L 7 12 L 14 12 L 14 11 L 7 11 z M 7 13 L 7 14 L 10 14 L 10 13 L 7 13 z "
     />
 <path 
     style="fill:#1d99f3" 
     d="M 2 5 L 2 10 L 5 7.5 L 2 5 z "
     />
 </svg>
